svgs/ambient_music_mod.svg

<svg width="192" height="192" viewBox="0 0 192 192" fill="none" xmlns="http://www.w3.org/2000/svg">
<path d="M96 170C136.869 170 170 136.869 170 96C170 55.1309 136.869 22 96 22C55.1309 22 22 55.1309 22 96C22 136.869 55.1309 170 96 170Z" stroke="black" stroke-width="12" stroke-linecap="round" stroke-linejoin="round"/>
<path d="M84.665 117.33C86.9653 117.33 88.83 115.465 88.83 113.165C88.83 110.865 86.9653 109 84.665 109C82.3647 109 80.5 110.865 80.5 113.165C80.5 115.465 82.3647 117.33 84.665 117.33Z" stroke="black" stroke-width="4" stroke-linecap="round" stroke-linejoin="round"/>
<path d="M68.4575 164.702C70.9322 158.239 71.6001 151.225 70.3895 144.412C69.1789 137.599 66.1355 131.244 61.5861 126.03C57.0367 120.816 51.153 116.94 44.5668 114.817C37.9807 112.694 30.9407 112.406 24.2028 113.982" stroke="black" stroke-width="8" stroke-linecap="round" stroke-linejoin="round"/>
<path d="M70.5 111.5C64.1395 104.791 58.0918 101.968 49.276 99.1842C40.4603 96.4009 31.0814 95.9061 22.0217 97.7464" stroke="black" stroke-width="8" stroke-linecap="round" stroke-linejoin="round"/>
<path d="M84.2471 169.071C86.7919 161.795 87.7655 154.062 87.1038 146.382C86.4422 138.703 84.2518 131.733 80.5 125" stroke="black" stroke-width="8" stroke-linecap="round" stroke-linejoin="round"/>
<path d="M80 98.5C66.7696 85.3443 51.572 80.3064 32.9141 80.331C29.7766 80.3302 26.6424 80.5364 23.532 80.9481" stroke="black" stroke-width="8" stroke-linecap="round" stroke-linejoin="round"/>
<path d="M101.109 169.825C102.787 163.707 103.634 157.391 103.629 151.046C103.647 139.719 101.218 132.054 96 122" stroke="black" stroke-width="8" stroke-linecap="round" stroke-linejoin="round"/>
<path d="M97.0198 68.6847H116.313V81.3525H97.0198V68.6847Z" stroke="black" stroke-width="8" stroke-linecap="round" stroke-linejoin="round"/>
<path d="M84.7042 125.296C91.5061 125.296 97.0202 119.782 97.0202 112.98C97.0202 106.178 91.5061 100.664 84.7042 100.664C77.9022 100.664 72.3882 106.178 72.3882 112.98C72.3882 119.782 77.9022 125.296 84.7042 125.296Z" stroke="black" stroke-width="8" stroke-linecap="round" stroke-linejoin="round"/>
<path d="M97.0198 81.3525V112.98" stroke="black" stroke-width="8" stroke-linecap="round" stroke-linejoin="round"/>
</svg>

<svg width="192" height="192" viewBox="0 0 192 192" fill="none" xmlns="http://www.w3.org/2000/svg"><path d="M96 170c40.869 0 74-33.131 74-74 0-40.87-33.131-74-74-74-40.87 0-74 33.13-74 74 0 40.869 33.13 74 74 74Z" stroke="#000" stroke-width="12" stroke-linecap="round" stroke-linejoin="round"/><path d="M84.665 117.33a4.165 4.165 0 1 0 0-8.33 4.165 4.165 0 0 0 0 8.33Z" stroke="#000" stroke-width="4" stroke-linecap="round" stroke-linejoin="round"/><path d="M68.457 164.702a38.1 38.1 0 0 0-23.89-49.885 38.095 38.095 0 0 0-20.364-.835M70.5 111.5c-6.36-6.709-12.408-9.532-21.224-12.316a54.494 54.494 0 0 0-27.254-1.438M84.247 169.071a54.543 54.543 0 0 0 2.857-22.689c-.662-7.679-2.852-14.649-6.604-21.382M80 98.5C66.77 85.344 51.572 80.306 32.914 80.331c-3.137 0-6.272.205-9.382.617M101.109 169.825a70.784 70.784 0 0 0 2.52-18.779c.018-11.327-2.411-18.992-7.629-29.046M97.02 68.685h19.293v12.668H97.02V68.685ZM84.704 125.296c6.802 0 12.316-5.514 12.316-12.316 0-6.802-5.514-12.316-12.316-12.316-6.802 0-12.316 5.514-12.316 12.316 0 6.802 5.514 12.316 12.316 12.316ZM97.02 81.353v31.627" stroke="#000" stroke-width="8" stroke-linecap="round" stroke-linejoin="round"/></svg>
